packages/dnb-ui-lib/assets/icons/einvoice_medium.svg

<svg width="24" height="24" viewBox="0 0 24 24" fill="none" xmlns="http://www.w3.org/2000/svg">
<path fill-rule="evenodd" clip-rule="evenodd" d="M5.25 2C5.25 1.86193 5.36193 1.75 5.5 1.75H15.5362C15.6097 1.75 15.6795 1.78238 15.727 1.83851L20.6908 7.70482C20.729 7.74996 20.75 7.80718 20.75 7.86631V22C20.75 22.1381 20.6381 22.25 20.5 22.25H5.5C5.36193 22.25 5.25 22.1381 5.25 22V19.5C5.25 19.0858 4.91421 18.75 4.5 18.75C4.08579 18.75 3.75 19.0858 3.75 19.5V22C3.75 22.9665 4.5335 23.75 5.5 23.75H20.5C21.4665 23.75 22.25 22.9665 22.25 22V7.86631C22.25 7.4524 22.1033 7.05188 21.8359 6.73591L16.8721 0.869601C16.5396 0.476638 16.051 0.25 15.5362 0.25H5.5C4.5335 0.25 3.75 1.0335 3.75 2V6.5C3.75 6.91421 4.08579 7.25 4.5 7.25C4.91421 7.25 5.25 6.91421 5.25 6.5V2ZM8.25602 13.608C8.28802 13.4907 8.30402 13.3467 8.30402 13.176C8.30402 12.3013 8.14935 11.544 7.84001 10.904C7.53068 10.2533 7.08802 9.75201 6.51201 9.40001C5.94668 9.04801 5.28001 8.87201 4.51201 8.87201C3.75468 8.87201 3.08268 9.04801 2.49601 9.40001C1.90935 9.74134 1.45068 10.2267 1.12001 10.856C0.800015 11.4747 0.640015 12.1893 0.640015 13C0.640015 13.8 0.810681 14.5147 1.15201 15.144C1.50401 15.7733 1.98935 16.264 2.60801 16.616C3.23735 16.968 3.94668 17.144 4.73601 17.144C5.53602 17.144 6.22402 16.9947 6.80001 16.696C7.37602 16.3973 7.80802 15.9547 8.09602 15.368L6.80001 14.456C6.35202 15.2453 5.66401 15.64 4.73601 15.64C4.11735 15.64 3.60535 15.464 3.20001 15.112C2.80535 14.76 2.57068 14.2587 2.49601 13.608H8.25602ZM3.16801 10.856C3.52001 10.536 3.96801 10.376 4.51201 10.376C5.04535 10.376 5.47735 10.536 5.80801 10.856C6.14935 11.1653 6.37335 11.6187 6.48002 12.216H2.51201C2.60801 11.6187 2.82668 11.1653 3.16801 10.856Z" fill="black"/>
</svg>

<svg width="24" height="24" viewBox="0 0 24 24" fill="none" xmlns="http://www.w3.org/2000/svg"><path fill-rule="evenodd" clip-rule="evenodd" d="M5.25 2a.25.25 0 01.25-.25h10.036a.25.25 0 01.191.089l4.964 5.866a.25.25 0 01.059.161V22a.25.25 0 01-.25.25h-15a.25.25 0 01-.25-.25v-2.5a.75.75 0 00-1.5 0V22c0 .966.784 1.75 1.75 1.75h15A1.75 1.75 0 0022.25 22V7.866a1.75 1.75 0 00-.414-1.13L16.872.87a1.75 1.75 0 00-1.336-.62H5.5A1.75 1.75 0 003.75 2v4.5a.75.75 0 001.5 0V2zm3.006 11.608c.032-.117.048-.261.048-.432 0-.875-.155-1.632-.464-2.272-.31-.65-.752-1.152-1.328-1.504-.565-.352-1.232-.528-2-.528-.757 0-1.43.176-2.016.528a3.557 3.557 0 00-1.376 1.456C.8 11.475.64 12.189.64 13c0 .8.17 1.515.512 2.144.352.63.837 1.12 1.456 1.472.63.352 1.339.528 2.128.528.8 0 1.488-.15 2.064-.448a2.894 2.894 0 001.296-1.328L6.8 14.456c-.448.79-1.136 1.184-2.064 1.184-.619 0-1.13-.176-1.536-.528-.395-.352-.63-.853-.704-1.504h5.76zm-5.088-2.752c.352-.32.8-.48 1.344-.48.533 0 .965.16 1.296.48.341.31.565.763.672 1.36H2.512c.096-.597.315-1.05.656-1.36z" fill="#000"/></svg>
